icon-themes/sifr_svg/cmd/lc_dia.svg

<svg viewBox="0 0 24 24" xmlns="http://www.w3.org/2000/svg"><path d="m1 2v3h2v13h5l-3 3v1h2l4-4h2l4 4h2v-1l-3-3h5v-13h2v-3zm4 3h14v11h-14zm2 1v2h10v-2zm0 3v5h3v-5zm5 0v5h5v-5zm-4 1h1v3h-1zm5 0h3v3h-3z" fill="#555753"/></svg>

<svg xmlns="http://www.w3.org/2000/svg" viewBox="0 0 24 24">
  <path
     style="fill:#555753"
     d="M 1 2 L 1 5 L 3 5 L 3 18 L 8 18 L 5 21 L 5 22 L 7 22 L 11 18 L 13 18 L 17 22 L 19 22 L 19 21 L 16 18 L 21 18 L 21 5 L 23 5 L 23 2 L 1 2 z M 5 5 L 19 5 L 19 16 L 5 16 L 5 5 z M 7 6 L 7 8 L 17 8 L 17 6 L 7 6 z M 7 9 L 7 14 L 10 14 L 10 9 L 7 9 z M 12 9 L 12 14 L 17 14 L 17 9 L 12 9 z M 8 10 L 9 10 L 9 13 L 8 13 L 8 10 z M 13 10 L 16 10 L 16 13 L 13 13 L 13 10 z "
     />
</svg>
